public/characters/giko_basketball/back-walking-1.svg

<svg width="160" height="182" xmlns="http://www.w3.org/2000/svg" xml:space="preserve" style="fill-rule:evenodd;clip-rule:evenodd;stroke-linecap:round;stroke-linejoin:round;stroke-miterlimit:1.5"><circle cx="1505.03" cy="474.652" r="16.705" style="fill:#b05d02;stroke:#000;stroke-width:1px" transform="rotate(180 811.639 294.421) scale(1.00234)"/><path d="M1536.52 481.049c-1.65 4.247 8.5 13.966 19.94 10.966" style="fill:none;stroke:#944d00;stroke-width:.7px" transform="rotate(180 1166.445 406.604) scale(1.43518)"/><path d="M1549.1 476.555c5.86 10.098 1.61 28.004-8.86 21.659-4.16-1.215-8.17-10.38-5.9-11.999 1.35 8.703 12.47 15.682 14.48 3.246.88-5.397-13.81-9.565-6.69-12.952 2.38-.923 4.69-.74 6.97.046Z" style="fill:none;stroke:#944d00;stroke-width:.7px" transform="rotate(180 1166.445 406.604) scale(1.43518)"/><path d="M1552.73 496.807c.33-5.022.57-5.887 3.73-11.166" style="fill:none;stroke:#944d00;stroke-width:.7px" transform="rotate(180 1166.445 406.604) scale(1.43518)"/><g opacity=".3"><circle cx="1505.03" cy="474.652" r="16.705" style="fill:#b05d02;stroke:#000;stroke-width:1px" transform="matrix(-1.00234 0 0 1.00234 1618.277 -380.966)"/><path d="M1536.52 481.049c-1.65 4.247 8.5 13.966 19.94 10.966" style="fill:none;stroke:#944d00;stroke-width:.7px" transform="matrix(-1.43518 0 0 1.43518 2327.89 -605.332)"/><path d="M1549.1 476.555c5.86 10.098 1.61 28.004-8.86 21.659-4.16-1.215-8.17-10.38-5.9-11.999 1.35 8.703 12.47 15.682 14.48 3.246.88-5.397-13.81-9.565-6.69-12.952 2.38-.923 4.69-.74 6.97.046Z" style="fill:none;stroke:#944d00;stroke-width:.7px" transform="matrix(-1.43518 0 0 1.43518 2327.89 -605.332)"/><path d="M1552.73 496.807c.33-5.022.57-5.887 3.73-11.166" style="fill:none;stroke:#944d00;stroke-width:.7px" transform="matrix(-1.43518 0 0 1.43518 2327.89 -605.332)"/></g><path d="M.35-60h3.9l1.2.55 3.85-8.6 3.9 8.6 1.25-.55 3.15 3.05 1.1 1.1-1.1-1.1 1.15 1.1h-.05l-.35.4.1.1c1.4 1.367 2.167 2.883 2.3 4.55l.05.6c0 1.1-.267 2.133-.8 3.1l-.25.45-1.4 1.7.1.1-.3.3-3.25.9-.75 16-1.5 1.25v6.75H8.1v1.55h6.6c.467 0 .85.133 1.15.4.367.367.55.917.55 1.65 0 .7-.183 1.233-.55 1.6-.3.3-.683.45-1.15.45H8.1v.95H.5l-3.55 3.5V-3c0 .467-.15.85-.45 1.15-.367.367-.9.55-1.6.55-.733 0-1.283-.183-1.65-.55-.267-.3-.4-.683-.4-1.15v-6.55H-8.7l-1.7-1.1-1.75-3.9v-3.9l.45-.4c.5-.4.95-.917 1.35-1.55l-1.25-1-.7.95.4-10.95 1.75-12.8.4.35.75-.7-1-1.1c-1-1.267-1.5-2.65-1.5-4.15l.05-1c.233-1.533 1.05-2.95 2.45-4.25l-.75-.75.5-3.95.65.3 3.85-8.6 3.85 8.6L.35-60m12.9 16.4.75-1.55v-1.35h-1.5v1.45h.55l-.55 1.45h.75m-2.95 0 .8-1.55v-1.35H9.55v1.45h.55l-.55 1.45h.75" style="fill:#fff" transform="matrix(2 0 0 2 79.441 142)"/><path d="m80.141 22-2.5 1.1-7.7-17.2-7.7 17.2-1.3-.6-1.1-.5 10.1-22 10.2 22m-20.2 8.4 1.5 1.5c-2.8 2.6-4.434 5.434-4.9 8.5l-.1 2c0 3 1 5.766 3 8.3l2 2.2-1.5 1.4-.8-.7-1.2-1.4c-2.4-2.934-3.6-6.2-3.6-9.8l.1-2c.466-3.734 2.3-7.066 5.5-10m-5.1 70.7 1.4-1.9 2.5 2c-.8 1.266-1.7 2.3-2.7 3.1l-.9.8c-.934.6-2 .9-3.2.9-1.266 0-3.034-.734-5.3-2.2l-3.8-1.3c-1.2 0-2.066.366-2.6 1.1l-1.2 1.9-2.7-1.5 2.4-3.3c1.066-1.066 2.366-1.6 3.9-1.6 1.466 0 2.966.534 4.5 1.6 2.2 1.134 3.9 1.7 5.1 1.7.866 0 1.734-.434 2.6-1.3m7.2 21.8h3.1V136c0 .934.266 1.7.8 2.3.734.734 1.834 1.1 3.3 1.1 1.4 0 2.466-.366 3.2-1.1.6-.6.9-1.366.9-2.3v-13.1h3v13.2c0 1.666-.534 3.034-1.6 4.1-1.2 1.2-3.034 1.8-5.5 1.8-2.534 0-4.4-.6-5.6-1.8-1.066-1.066-1.6-2.434-1.6-4.1v-13.2m33.6-7V114h13.2c.934 0 1.7-.3 2.3-.9.734-.734 1.1-1.8 1.1-3.2 0-1.466-.366-2.566-1.1-3.3-.6-.534-1.366-.8-2.3-.8h-13.2v-3.1h13.3c1.666 0 3.034.534 4.1 1.6 1.2 1.2 1.8 3.066 1.8 5.6 0 2.466-.6 4.3-1.8 5.5l-.6.5c-1 .734-2.166 1.1-3.5 1.1h-13.3v-1.1m20.7-63.6-.2-.2 2.8-3.4.5-.9c1.066-1.934 1.6-4 1.6-6.2l-.1-1.2c-.266-3.334-1.8-6.366-4.6-9.1l-.2-.2.7-.8h.1l.6-.7c3.4 3.134 5.234 6.734 5.5 10.8l.1 1.2c0 2.534-.6 4.9-1.8 7.1-.934 1.666-2.2 3.266-3.8 4.8l-1.2-1.2m-8-30.3-2.5 1.1-7.8-17.2-7.7 17.2-2.4-1.1 10.1-22 10.3 22m-8.3 32.8h-1.5l1.1-2.9h-1.1V49h3.1v2.7l-1.6 3.1m5.9 0h-1.5l1.1-2.9h-1.1V49h3v2.7l-1.5 3.1"/><path d="M4.25-60H.35m12.3 40.35v-6.75m6.05-29.45-1.1-1.1" style="fill:none;fill-rule:nonzero;stroke:#000;stroke-width:1px;stroke-miterlimit:4" transform="matrix(2 0 0 2 79.441 142)"/><path d="m55.216 60.31 3.34-5.937 3.879.852c12.993 13.066 35.453 12.034 42.006.421 0 0 2.064 3.77 2.467 6.864 1.294 9.944 2.145 29.513 1.435 32.838l-54.066-.733c-.689-12.748-2.284-21.557.939-34.305Zm6.244 1.015c-3.701-.547-4.983 1.333-6.772 6.812-2.055 6.295.897 16.76 5.783 16.76 4.887 0 8.016-4.018 8.535-10.619.439-5.59-1.982-12.132-7.546-12.953Z" style="fill:#c7c7c7;stroke:#000;stroke-width:2px;stroke-linecap:butt" transform="scale(-1 1) rotate(-3.493 0 2755.786)"/><path d="m91.702 66.897 3.366.097 1.092 2.193-.391 6.237-2.99 2.007 2.771 1.984-.303 7.266-2.152 1.843-2.984-.196-1.244-2.176.648-6.94 3.264-1.781-2.836-2.509.16-6.187 1.599-1.838Z" style="fill:none;stroke:#ffdb69;stroke-width:2.5px;stroke-linecap:butt" transform="translate(-17.901 2.569)"/><path d="M70.252 68.803c4.524-2.168 9.048-3.314 13.572-3.526 3.84.403 5.331 1.406 6.318 3.14 1.162 2.041 1.304 5.054-.974 8.7-3.395 1.558-7.188 2.319-11.421 2.2" style="fill:#fff;stroke:#000;stroke-width:3px;stroke-linecap:butt" transform="rotate(39.285 91.92 112.968)"/><g style="display:none"><path d="M107.46 30.1h6.3" style="fill:none;fill-rule:nonzero;stroke:#000;stroke-width:3px;stroke-miterlimit:4" transform="translate(.338 1.6)" id="gikopoipoi_eyes_closed"/></g><path d="M1.35 0h.2l.55.1.45.35c.3.3.45.633.45 1L2.55 2.6c-.3.267-.633.4-1 .4l-.8-.2-.25-.2-.45-.7v-.15L0 1.45v-.1c.033-.333.2-.633.5-.9l.25-.2C.917.117 1.1.033 1.3 0h.05m.45.85L1.55.8C1.317.767 1.133.833 1 1c-.133.1-.2.25-.2.45v.15l.15.45H1l.05.05.2.1.3.05.55-.2.15-.6-.05-.3L2.1 1 2.05.95 1.9.85h-.1" transform="matrix(2.0124 0 0 2 107.922 28.6)" id="gikopoipoi_eyes_open"/></svg>

<?xml version="1.0" encoding="UTF-8" standalone="no"?>
<!DOCTYPE svg PUBLIC "-//W3C//DTD SVG 1.1//EN" "http://www.w3.org/Graphics/SVG/1.1/DTD/svg11.dtd">
<svg width="160px" height="182px" version="1.1" xmlns="http://www.w3.org/2000/svg" xmlns:xlink="http://www.w3.org/1999/xlink" xml:space="preserve" xmlns:serif="http://www.serif.com/" style="fill-rule:evenodd;clip-rule:evenodd;stroke-linecap:round;stroke-linejoin:round;stroke-miterlimit:1.5;">
    <g transform="matrix(-1.43518,0,0,-1.43518,2332.89,813.209)">
        <g transform="matrix(0.698409,0,0,0.698409,494.442,156.333)">
            <circle cx="1505.03" cy="474.652" r="16.705" style="fill:rgb(176,93,2);stroke:black;stroke-width:1px;"/>
        </g>
        <path d="M1536.52,481.049C1534.87,485.296 1545.02,495.015 1556.46,492.015" style="fill:none;stroke:rgb(148,77,0);stroke-width:0.7px;"/>
        <path d="M1549.1,476.555C1554.96,486.653 1550.71,504.559 1540.24,498.214C1536.08,496.999 1532.07,487.834 1534.34,486.215C1535.69,494.918 1546.81,501.897 1548.82,489.461C1549.7,484.064 1535.01,479.896 1542.13,476.509C1544.51,475.586 1546.82,475.769 1549.1,476.555Z" style="fill:none;stroke:rgb(148,77,0);stroke-width:0.7px;"/>
        <path d="M1552.73,496.807C1553.06,491.785 1553.3,490.92 1556.46,485.641" style="fill:none;stroke:rgb(148,77,0);stroke-width:0.7px;"/>
    </g>
    <g transform="matrix(-1.43518,0,0,1.43518,2327.89,-605.332)">
        <g opacity="0.3">
            <g transform="matrix(0.698409,0,0,0.698409,494.442,156.333)">
                <circle cx="1505.03" cy="474.652" r="16.705" style="fill:rgb(176,93,2);stroke:black;stroke-width:1px;"/>
            </g>
            <path d="M1536.52,481.049C1534.87,485.296 1545.02,495.015 1556.46,492.015" style="fill:none;stroke:rgb(148,77,0);stroke-width:0.7px;"/>
            <path d="M1549.1,476.555C1554.96,486.653 1550.71,504.559 1540.24,498.214C1536.08,496.999 1532.07,487.834 1534.34,486.215C1535.69,494.918 1546.81,501.897 1548.82,489.461C1549.7,484.064 1535.01,479.896 1542.13,476.509C1544.51,475.586 1546.82,475.769 1549.1,476.555Z" style="fill:none;stroke:rgb(148,77,0);stroke-width:0.7px;"/>
            <path d="M1552.73,496.807C1553.06,491.785 1553.3,490.92 1556.46,485.641" style="fill:none;stroke:rgb(148,77,0);stroke-width:0.7px;"/>
        </g>
    </g>
    <g id="a" transform="matrix(2,0,0,2,36.341,0)">
        <g transform="matrix(1,0,0,1,21.55,71)">
            <path d="M0.35,-60L4.25,-60L5.45,-59.45L9.3,-68.05L13.2,-59.45L14.45,-60L17.6,-56.95L18.7,-55.85L17.6,-56.95L18.75,-55.85L18.7,-55.85L18.35,-55.45L18.45,-55.35C19.85,-53.983 20.617,-52.467 20.75,-50.8L20.8,-50.2C20.8,-49.1 20.533,-48.067 20,-47.1L19.75,-46.65L18.35,-44.95L18.45,-44.85L18.15,-44.55L14.9,-43.65L14.15,-27.65L12.65,-26.4L12.65,-19.65L8.1,-19.65L8.1,-18.1L14.7,-18.1C15.167,-18.1 15.55,-17.967 15.85,-17.7C16.217,-17.333 16.4,-16.783 16.4,-16.05C16.4,-15.35 16.217,-14.817 15.85,-14.45C15.55,-14.15 15.167,-14 14.7,-14L8.1,-14L8.1,-13.05L0.5,-13.05L-3.05,-9.55L-3.05,-3C-3.05,-2.533 -3.2,-2.15 -3.5,-1.85C-3.867,-1.483 -4.4,-1.3 -5.1,-1.3C-5.833,-1.3 -6.383,-1.483 -6.75,-1.85C-7.017,-2.15 -7.15,-2.533 -7.15,-3L-7.15,-9.55L-8.7,-9.55L-10.4,-10.65L-12.15,-14.55L-12.15,-18.45L-11.7,-18.85C-11.2,-19.25 -10.75,-19.767 -10.35,-20.4L-11.6,-21.4L-12.3,-20.45L-11.9,-31.4L-10.15,-44.2L-9.75,-43.85L-9,-44.55L-10,-45.65C-11,-46.917 -11.5,-48.3 -11.5,-49.8L-11.45,-50.8C-11.217,-52.333 -10.4,-53.75 -9,-55.05L-9.75,-55.8L-9.25,-59.75L-8.6,-59.45L-4.75,-68.05L-0.9,-59.45L0.35,-60M13.25,-43.6L14,-45.15L14,-46.5L12.5,-46.5L12.5,-45.05L13.05,-45.05L12.5,-43.6L13.25,-43.6M10.3,-43.6L11.1,-45.15L11.1,-46.5L9.55,-46.5L9.55,-45.05L10.1,-45.05L9.55,-43.6L10.3,-43.6" style="fill:white;"/>
        </g>
        <g transform="matrix(1,0,0,1,21.55,71)">
            <path d="M0.35,-60L-0.9,-59.45L-4.75,-68.05L-8.6,-59.45L-9.25,-59.75L-9.8,-60L-4.75,-71L0.35,-60M-9.75,-55.8L-9,-55.05C-10.4,-53.75 -11.217,-52.333 -11.45,-50.8L-11.5,-49.8C-11.5,-48.3 -11,-46.917 -10,-45.65L-9,-44.55L-9.75,-43.85L-10.15,-44.2L-10.75,-44.9C-11.95,-46.367 -12.55,-48 -12.55,-49.8L-12.5,-50.8C-12.267,-52.667 -11.35,-54.333 -9.75,-55.8M-12.3,-20.45L-11.6,-21.4L-10.35,-20.4C-10.75,-19.767 -11.2,-19.25 -11.7,-18.85L-12.15,-18.45C-12.617,-18.15 -13.15,-18 -13.75,-18C-14.383,-18 -15.267,-18.367 -16.4,-19.1L-18.3,-19.75C-18.9,-19.75 -19.333,-19.567 -19.6,-19.2L-20.2,-18.25L-21.55,-19L-20.35,-20.65C-19.817,-21.183 -19.167,-21.45 -18.4,-21.45C-17.667,-21.45 -16.917,-21.183 -16.15,-20.65C-15.05,-20.083 -14.2,-19.8 -13.6,-19.8C-13.167,-19.8 -12.733,-20.017 -12.3,-20.45M-8.7,-9.55L-7.15,-9.55L-7.15,-3C-7.15,-2.533 -7.017,-2.15 -6.75,-1.85C-6.383,-1.483 -5.833,-1.3 -5.1,-1.3C-4.4,-1.3 -3.867,-1.483 -3.5,-1.85C-3.2,-2.15 -3.05,-2.533 -3.05,-3L-3.05,-9.55L-1.55,-9.55L-1.55,-2.95C-1.55,-2.117 -1.817,-1.433 -2.35,-0.9C-2.95,-0.3 -3.867,-0 -5.1,-0C-6.367,-0 -7.3,-0.3 -7.9,-0.9C-8.433,-1.433 -8.7,-2.117 -8.7,-2.95L-8.7,-9.55M8.1,-13.05L8.1,-14L14.7,-14C15.167,-14 15.55,-14.15 15.85,-14.45C16.217,-14.817 16.4,-15.35 16.4,-16.05C16.4,-16.783 16.217,-17.333 15.85,-17.7C15.55,-17.967 15.167,-18.1 14.7,-18.1L8.1,-18.1L8.1,-19.65L14.75,-19.65C15.583,-19.65 16.267,-19.383 16.8,-18.85C17.4,-18.25 17.7,-17.317 17.7,-16.05C17.7,-14.817 17.4,-13.9 16.8,-13.3L16.5,-13.05C16,-12.683 15.417,-12.5 14.75,-12.5L8.1,-12.5L8.1,-13.05M18.45,-44.85L18.35,-44.95L19.75,-46.65L20,-47.1C20.533,-48.067 20.8,-49.1 20.8,-50.2L20.75,-50.8C20.617,-52.467 19.85,-53.983 18.45,-55.35L18.35,-55.45L18.7,-55.85L18.75,-55.85L19.05,-56.2C20.75,-54.633 21.667,-52.833 21.8,-50.8L21.85,-50.2C21.85,-48.933 21.55,-47.75 20.95,-46.65C20.483,-45.817 19.85,-45.017 19.05,-44.25L18.45,-44.85M14.45,-60L13.2,-59.45L9.3,-68.05L5.45,-59.45L4.25,-60L9.3,-71L14.45,-60M10.3,-43.6L9.55,-43.6L10.1,-45.05L9.55,-45.05L9.55,-46.5L11.1,-46.5L11.1,-45.15L10.3,-43.6M13.25,-43.6L12.5,-43.6L13.05,-45.05L12.5,-45.05L12.5,-46.5L14,-46.5L14,-45.15L13.25,-43.6"/>
        </g>
        <g transform="matrix(1,0,0,1,21.55,71)">
            <path d="M4.25,-60L0.35,-60M12.65,-19.65L12.65,-26.4M18.7,-55.85L17.6,-56.95" style="fill:none;fill-rule:nonzero;stroke:black;stroke-width:1px;stroke-miterlimit:4;"/>
        </g>
    </g>
    <g transform="matrix(-0.998142,-0.060926,-0.060926,0.998142,167.899,5.11946)">
        <path d="M55.216,60.31L58.556,54.373L62.435,55.225C75.428,68.291 97.888,67.259 104.441,55.646C104.441,55.646 106.505,59.416 106.908,62.51C108.202,72.454 109.053,92.023 108.343,95.348L54.277,94.615C53.588,81.867 51.993,73.058 55.216,60.31ZM61.46,61.325C57.759,60.778 56.477,62.658 54.688,68.137C52.633,74.432 55.585,84.897 60.471,84.897C65.358,84.897 68.487,80.879 69.006,74.278C69.445,68.688 67.024,62.146 61.46,61.325Z" style="fill:rgb(199,199,199);stroke:black;stroke-width:2px;stroke-linecap:butt;"/>
    </g>
    <g transform="matrix(1,0,0,1,-17.9012,2.5686)">
        <path d="M91.702,66.897L95.068,66.994L96.16,69.187L95.769,75.424L92.779,77.431L95.55,79.415L95.247,86.681L93.095,88.524L90.111,88.328L88.867,86.152L89.515,79.212L92.779,77.431L89.943,74.922L90.103,68.735L91.702,66.897Z" style="fill:none;stroke:rgb(255,219,105);stroke-width:2.5px;stroke-linecap:butt;"/>
    </g>
    <g transform="matrix(0.774006,0.633178,-0.633178,0.774006,92.3021,-32.6714)">
        <path d="M70.252,68.803C74.776,66.635 79.3,65.489 83.824,65.277C87.664,65.68 89.155,66.683 90.142,68.417C91.304,70.458 91.446,73.471 89.168,77.117C85.773,78.675 81.98,79.436 77.747,79.317" style="fill:white;stroke:black;stroke-width:3px;stroke-linecap:butt;"/>
    </g>
    <g id="gikopoipoi_eyes_closed" style="display:none" transform="matrix(1,0,0,1,0.338,1.6)">
        <path d="M107.46,30.1L113.76,30.1" style="fill:none;fill-rule:nonzero;stroke:black;stroke-width:3px;stroke-miterlimit:4;"/>
    </g>
    <g id="gikopoipoi_eyes_open" transform="matrix(2.0124,0,0,2,107.922,28.6)">
        <path d="M1.35,0L1.55,0L2.1,0.1L2.55,0.45C2.85,0.75 3,1.083 3,1.45L2.55,2.6C2.25,2.867 1.917,3 1.55,3L0.75,2.8L0.5,2.6L0.05,1.9L0.05,1.75L0,1.45L0,1.35C0.033,1.017 0.2,0.717 0.5,0.45L0.75,0.25C0.917,0.117 1.1,0.033 1.3,0L1.35,0M1.8,0.85L1.55,0.8C1.317,0.767 1.133,0.833 1,1C0.867,1.1 0.8,1.25 0.8,1.45L0.8,1.6L0.95,2.05L1,2.05L1.05,2.1L1.25,2.2L1.55,2.25L2.1,2.05L2.25,1.45L2.2,1.15L2.1,1L2.05,0.95L1.9,0.85L1.8,0.85"/>
    </g>
</svg>
